Newaita-dark/apps/24/bareftp.svg

<svg height="24" viewBox="0 0 24 24" width="24" xmlns="http://www.w3.org/2000/svg" xmlns:xlink="http://www.w3.org/1999/xlink"><linearGradient id="a"><stop offset="0" stop-opacity=".313726"/><stop offset=".222222" stop-opacity=".27451"/><stop offset="1" stop-opacity="0"/></linearGradient><radialGradient id="b" cx="450.908936" cy="189.579361" gradientTransform="matrix(.00000013 -.0585994 -.105479 -.00000008 33.392364 47.696497)" gradientUnits="userSpaceOnUse" r="21.166656" xlink:href="#a"/><radialGradient id="c" cx="450.908936" cy="189.579361" gradientTransform="matrix(-.00000013 .0585994 .105479 .00000008 -11.066012 -5.645612)" gradientUnits="userSpaceOnUse" r="21.166656" xlink:href="#a"/><radialGradient id="d" cx="450.908936" cy="189.579361" gradientTransform="matrix(-.00000013 -.0585994 .105479 -.00000008 -11.066012 47.696497)" gradientUnits="userSpaceOnUse" r="21.166656" xlink:href="#a"/><radialGradient id="e" cx="450.908936" cy="189.579361" gradientTransform="matrix(.00000013 .0585994 -.105479 .00000008 33.392362 -5.645612)" gradientUnits="userSpaceOnUse" r="21.166656" xlink:href="#a"/><linearGradient id="f" gradientTransform="matrix(.01002 0 0 .0468795 9.34904 10.079088)" gradientUnits="userSpaceOnUse" x1="255.323059" x2="255.323044" y1="233.5" y2="254.666656"><stop offset="0" stop-opacity=".27451"/><stop offset="1" stop-opacity="0"/></linearGradient><linearGradient id="g" gradientUnits="userSpaceOnUse" x1="254" x2="254" y1="233.5" y2="-168.666656"><stop offset="0" stop-color="#616161"/><stop offset="1" stop-color="#757575"/></linearGradient><linearGradient id="h" gradientUnits="userSpaceOnUse" x1="8.93054475" x2="8.93054475" y1="21.02545025" y2="2.17207774998"><stop offset="0" stop-color="#ffa726"/><stop offset="1" stop-color="#ffb74d"/></linearGradient><linearGradient id="i" gradientUnits="userSpaceOnUse" x1="15.38038312505" x2="15.38038312505" y1="21.02545025" y2="2.17207774998"><stop offset="0" stop-color="#26a69a"/><stop offset="1" stop-color="#4db6ac"/></linearGradient><path d="m13.644531 21.027344h1.984375v-.996094h-1.984375zm0 0" fill="url(#b)"/><path d="m8.683594 21.027344h-1.984375v.992187h1.984375zm0 0" fill="url(#c)"/><path d="m8.683594 21.027344h-1.984375v-.996094h1.984375zm0 0" fill="url(#d)"/><path d="m13.644531 21.027344h1.984375v.992187h-1.984375zm0 0" fill="url(#e)"/><path d="m8.683594 20.777344h4.960937v1.242187h-4.960937zm0 0" fill="url(#f)"/><path d="m253.975747-168.671091c111.072726 0 201.147458 89.991406 201.147458 201.064133 0 111.072726-90.074732 201.147458-201.147458 201.147458-110.989402 0-201.064133-90.074732-201.064133-201.147458 0-111.072727 90.074731-201.064133 201.064133-201.064133zm0 0" fill="url(#g)" stroke="#333" stroke-linecap="round" stroke-width="3" transform="matrix(.0468795 0 0 .0468795 0 10.079087)"/><path d="m11.90625 21.027344c-5.222656 0-9.425781-4.207032-9.425781-9.429688 0-.03125 0-.058594 0-.089844.050781 5.179688 4.234375 9.332032 9.425781 9.332032s9.378906-4.152344 9.425781-9.332032c0 .03125.003907.058594.003907.089844 0 5.222656-4.207032 9.429688-9.429688 9.429688zm0 0" fill-opacity=".196078"/><path d="m11.90625 2.171875c-5.222656 0-9.425781 4.203125-9.425781 9.425781v.09375c.050781-5.179687 4.234375-9.335937 9.425781-9.335937s9.378906 4.15625 9.425781 9.335937c0-.03125.003907-.0625.003907-.09375 0-5.222656-4.207032-9.425781-9.429688-9.425781zm0 0" fill="#fff" fill-opacity=".392157"/><path d="m11.90625 2.101562c-5.257812 0-9.496094 4.238282-9.496094 9.496094 0 5.261719 4.238282 9.5 9.496094 9.5 5.261719 0 9.5-4.238281 9.5-9.5 0-5.257812-4.238281-9.496094-9.5-9.496094zm0 .140626c5.1875 0 9.359375 4.171874 9.359375 9.355468 0 5.1875-4.171875 9.359375-9.359375 9.359375-5.183594 0-9.355469-4.171875-9.355469-9.359375 0-5.183594 4.171875-9.355468 9.355469-9.355468zm0 0" fill="#212121"/><path d="m7.441406 7.609375c-.285156 0-.515625.230469-.515625.515625v8.417969h-.972656c-.417969 0-.660156.472656-.417969.8125l2.480469 3.472656c.207031.289063.632813.289063.835937 0l2.480469-3.472656c.246094-.339844 0-.8125-.417969-.8125h-.972656v-8.417969c0-.285156-.230468-.515625-.515625-.515625zm0 0" fill="url(#h)"/><path d="m14.371094 15.566406c-.285156 0-.515625-.230468-.515625-.511718v-8.417969h-.972657c-.421874 0-.664062-.472657-.421874-.8125l2.480468-3.472657c.207032-.289062.632813-.289062.839844 0l2.480469 3.472657c.242187.339843 0 .8125-.417969.8125h-.976562v8.417969c0 .28125-.230469.511718-.511719.511718zm0 0" fill="url(#i)"/><path d="m11.394531 17.242188c-.015625.039062-.035156.078124-.0625.113281l-2.300781 3.226562c.070312.023438.144531.042969.214844.066407l2.085937-2.921876c.109375-.152343.121094-.332031.0625-.484374zm-5.921875 0c-.058594.152343-.046875.332031.0625.484374l1.308594 1.832032c.152344.097656.304688.191406.464844.277344l-1.773438-2.480469c-.027344-.035157-.046875-.074219-.0625-.113281zm0 0" fill-opacity=".235294"/><path d="m12.402344 6.308594c-.128906.324218.105468.699218.480468.699218h.972657v-.371093h-.972657c-.230468 0-.410156-.144531-.480468-.328125zm5.921875 0c-.074219.183594-.25.328125-.480469.328125h-.976562v.371093h.976562c.375 0 .605469-.375.480469-.699218zm-4.46875 8.746094v.371093c0 .285157.230469.515625.515625.515625h1.984375c.28125 0 .511719-.230468.511719-.515625v-.371093c0 .28125-.230469.511718-.511719.511718h-1.984375c-.285156 0-.515625-.230468-.515625-.511718zm0 0" fill-opacity=".235294"/><path d="m7.441406 7.609375c-.285156 0-.515625.230469-.515625.515625v.214844c0-.285156.230469-.515625.515625-.515625h1.984375c.285157 0 .515625.230469.515625.515625v-.214844c0-.285156-.230468-.515625-.515625-.515625zm-1.488281 8.933594c-.34375 0-.570313.316406-.503906.621093.046875-.222656.242187-.410156.503906-.410156h.972656v-.210937zm3.988281 0v.210937h.972656c.265626 0 .457032.1875.503907.410156.066406-.304687-.160157-.621093-.503907-.621093zm0 0" fill="#fff" fill-opacity=".392157"/><path d="m15.363281 2.136719c-.160156 0-.316406.070312-.421875.214843l-2.480468 3.472657c-.089844.125-.113282.269531-.082032.402343.011719-.066406.039063-.128906.082032-.191406l2.480468-3.472656c.207032-.285156.632813-.285156.839844 0l2.480469 3.472656c.042969.0625.070312.125.085937.191406.027344-.132812.003906-.277343-.085937-.402343l-2.480469-3.472657c-.101562-.144531-.261719-.214843-.417969-.214843zm0 0" fill="#fff" fill-opacity=".392157"/><g fill="none" stroke="#212121" stroke-linecap="round" stroke-linejoin="round" stroke-width="3" transform="matrix(.0468795 0 0 .0468795 0 10.079087)"><path d="m158.734842-52.682167c-6.082753 0-10.99895 4.916197-10.99895 10.998949v179.566186h-20.748019c-8.915815 0-14.081988 10.082371-8.915815 17.331678l52.911614 74.07626c4.416245 6.166078 13.498711 6.166078 17.83163 0l52.911614-74.07626c5.249499-7.249307 0-17.331678-8.915815-17.331678h-20.748019v-179.566186c0-6.082752-4.916197-10.998949-10.998949-10.998949zm0 0"/><path d="m306.554059 117.051624c-6.082753 0-10.99895-4.916197-10.99895-10.915624v-179.566186h-20.748018c-8.999141 0-14.165314-10.08237-8.999141-17.331678l52.911614-74.07626c4.416245-6.166077 13.498711-6.166077 17.914956 0l52.911614 74.07626c5.166173 7.249308 0 17.331678-8.915816 17.331678h-20.831344v179.566186c0 5.999427-4.916197 10.915624-10.915624 10.915624zm0 0"/></g></svg>

<?xml version="1.0" encoding="UTF-8"?>
<svg xmlns="http://www.w3.org/2000/svg" xmlns:xlink="http://www.w3.org/1999/xlink" width="24px" height="24px" viewBox="0 0 24 24" version="1.1">
<defs>
<radialGradient id="radial0" gradientUnits="userSpaceOnUse" cx="450.908936" cy="189.579361" fx="450.908936" fy="189.579361" r="21.166656" gradientTransform="matrix(0.000000130628,-0.0585994,-0.105479,-0.0000000761539,33.392364,47.696497)">
<stop offset="0" style="stop-color:rgb(0%,0%,0%);stop-opacity:0.313726;"/>
<stop offset="0.222222" style="stop-color:rgb(0%,0%,0%);stop-opacity:0.27451;"/>
<stop offset="1" style="stop-color:rgb(0%,0%,0%);stop-opacity:0;"/>
</radialGradient>
<radialGradient id="radial1" gradientUnits="userSpaceOnUse" cx="450.908936" cy="189.579361" fx="450.908936" fy="189.579361" r="21.166656" gradientTransform="matrix(-0.000000130628,0.0585994,0.105479,0.0000000761539,-11.066012,-5.645612)">
<stop offset="0" style="stop-color:rgb(0%,0%,0%);stop-opacity:0.313726;"/>
<stop offset="0.222222" style="stop-color:rgb(0%,0%,0%);stop-opacity:0.27451;"/>
<stop offset="1" style="stop-color:rgb(0%,0%,0%);stop-opacity:0;"/>
</radialGradient>
<radialGradient id="radial2" gradientUnits="userSpaceOnUse" cx="450.908936" cy="189.579361" fx="450.908936" fy="189.579361" r="21.166656" gradientTransform="matrix(-0.000000130628,-0.0585994,0.105479,-0.0000000761539,-11.066012,47.696497)">
<stop offset="0" style="stop-color:rgb(0%,0%,0%);stop-opacity:0.313726;"/>
<stop offset="0.222222" style="stop-color:rgb(0%,0%,0%);stop-opacity:0.27451;"/>
<stop offset="1" style="stop-color:rgb(0%,0%,0%);stop-opacity:0;"/>
</radialGradient>
<radialGradient id="radial3" gradientUnits="userSpaceOnUse" cx="450.908936" cy="189.579361" fx="450.908936" fy="189.579361" r="21.166656" gradientTransform="matrix(0.000000130628,0.0585994,-0.105479,0.0000000761539,33.392362,-5.645612)">
<stop offset="0" style="stop-color:rgb(0%,0%,0%);stop-opacity:0.313726;"/>
<stop offset="0.222222" style="stop-color:rgb(0%,0%,0%);stop-opacity:0.27451;"/>
<stop offset="1" style="stop-color:rgb(0%,0%,0%);stop-opacity:0;"/>
</radialGradient>
<linearGradient id="linear0" gradientUnits="userSpaceOnUse" x1="255.323059" y1="233.5" x2="255.323044" y2="254.666656" gradientTransform="matrix(0.01002,0,0,0.0468795,9.34904,10.079088)">
<stop offset="0" style="stop-color:rgb(0%,0%,0%);stop-opacity:0.27451;"/>
<stop offset="1" style="stop-color:rgb(0%,0%,0%);stop-opacity:0;"/>
</linearGradient>
<linearGradient id="linear1" gradientUnits="userSpaceOnUse" x1="254" y1="233.5" x2="254" y2="-168.666656" gradientTransform="matrix(1,0,0,1,0,0)">
<stop offset="0" style="stop-color:rgb(38.039216%,38.039216%,38.039216%);stop-opacity:1;"/>
<stop offset="1" style="stop-color:rgb(45.882353%,45.882353%,45.882353%);stop-opacity:1;"/>
</linearGradient>
<linearGradient id="linear2" gradientUnits="userSpaceOnUse" x1="190.5" y1="233.5" x2="190.5" y2="-168.666672" gradientTransform="matrix(0.0468795,0,0,0.0468795,0,10.079087)">
<stop offset="0" style="stop-color:rgb(100%,65.490198%,14.901961%);stop-opacity:1;"/>
<stop offset="1" style="stop-color:rgb(100%,71.764708%,30.19608%);stop-opacity:1;"/>
</linearGradient>
<linearGradient id="linear3" gradientUnits="userSpaceOnUse" x1="328.083344" y1="233.5" x2="328.083344" y2="-168.666672" gradientTransform="matrix(0.0468795,0,0,0.0468795,0,10.079087)">
<stop offset="0" style="stop-color:rgb(14.901961%,65.098041%,60.392159%);stop-opacity:1;"/>
<stop offset="1" style="stop-color:rgb(30.19608%,71.372551%,67.450982%);stop-opacity:1;"/>
</linearGradient>
</defs>
<g id="surface1">
<path style=" stroke:none;fill-rule:nonzero;fill:url(#radial0);" d="M 13.644531 21.027344 L 15.628906 21.027344 L 15.628906 20.03125 L 13.644531 20.03125 Z M 13.644531 21.027344 "/>
<path style=" stroke:none;fill-rule:nonzero;fill:url(#radial1);" d="M 8.683594 21.027344 L 6.699219 21.027344 L 6.699219 22.019531 L 8.683594 22.019531 Z M 8.683594 21.027344 "/>
<path style=" stroke:none;fill-rule:nonzero;fill:url(#radial2);" d="M 8.683594 21.027344 L 6.699219 21.027344 L 6.699219 20.03125 L 8.683594 20.03125 Z M 8.683594 21.027344 "/>
<path style=" stroke:none;fill-rule:nonzero;fill:url(#radial3);" d="M 13.644531 21.027344 L 15.628906 21.027344 L 15.628906 22.019531 L 13.644531 22.019531 Z M 13.644531 21.027344 "/>
<path style=" stroke:none;fill-rule:nonzero;fill:url(#linear0);" d="M 8.683594 20.777344 L 13.644531 20.777344 L 13.644531 22.019531 L 8.683594 22.019531 Z M 8.683594 20.777344 "/>
<path style="fill-rule:nonzero;fill:url(#linear1);stroke-width:3;stroke-linecap:round;stroke-linejoin:miter;stroke:rgb(20%,20%,20%);stroke-opacity:1;stroke-miterlimit:4;" d="M 253.975747 -168.671091 C 365.048473 -168.671091 455.123205 -78.679685 455.123205 32.393042 C 455.123205 143.465768 365.048473 233.5405 253.975747 233.5405 C 142.986345 233.5405 52.911614 143.465768 52.911614 32.393042 C 52.911614 -78.679685 142.986345 -168.671091 253.975747 -168.671091 Z M 253.975747 -168.671091 " transform="matrix(0.0468795,0,0,0.0468795,0,10.079087)"/>
<path style=" stroke:none;fill-rule:nonzero;fill:rgb(0%,0%,0%);fill-opacity:0.196078;" d="M 11.90625 21.027344 C 6.683594 21.027344 2.480469 16.820312 2.480469 11.597656 C 2.480469 11.566406 2.480469 11.539062 2.480469 11.507812 C 2.53125 16.6875 6.714844 20.839844 11.90625 20.839844 C 17.097656 20.839844 21.285156 16.6875 21.332031 11.507812 C 21.332031 11.539062 21.335938 11.566406 21.335938 11.597656 C 21.335938 16.820312 17.128906 21.027344 11.90625 21.027344 Z M 11.90625 21.027344 "/>
<path style=" stroke:none;fill-rule:nonzero;fill:rgb(100%,100%,100%);fill-opacity:0.392157;" d="M 11.90625 2.171875 C 6.683594 2.171875 2.480469 6.375 2.480469 11.597656 C 2.480469 11.628906 2.480469 11.660156 2.480469 11.691406 C 2.53125 6.511719 6.714844 2.355469 11.90625 2.355469 C 17.097656 2.355469 21.285156 6.511719 21.332031 11.691406 C 21.332031 11.660156 21.335938 11.628906 21.335938 11.597656 C 21.335938 6.375 17.128906 2.171875 11.90625 2.171875 Z M 11.90625 2.171875 "/>
<path style=" stroke:none;fill-rule:nonzero;fill:rgb(12.941177%,12.941177%,12.941177%);fill-opacity:1;" d="M 11.90625 2.101562 C 6.648438 2.101562 2.410156 6.339844 2.410156 11.597656 C 2.410156 16.859375 6.648438 21.097656 11.90625 21.097656 C 17.167969 21.097656 21.40625 16.859375 21.40625 11.597656 C 21.40625 6.339844 17.167969 2.101562 11.90625 2.101562 Z M 11.90625 2.242188 C 17.09375 2.242188 21.265625 6.414062 21.265625 11.597656 C 21.265625 16.785156 17.09375 20.957031 11.90625 20.957031 C 6.722656 20.957031 2.550781 16.785156 2.550781 11.597656 C 2.550781 6.414062 6.722656 2.242188 11.90625 2.242188 Z M 11.90625 2.242188 "/>
<path style=" stroke:none;fill-rule:nonzero;fill:url(#linear2);" d="M 7.441406 7.609375 C 7.15625 7.609375 6.925781 7.839844 6.925781 8.125 L 6.925781 16.542969 L 5.953125 16.542969 C 5.535156 16.542969 5.292969 17.015625 5.535156 17.355469 L 8.015625 20.828125 C 8.222656 21.117188 8.648438 21.117188 8.851562 20.828125 L 11.332031 17.355469 C 11.578125 17.015625 11.332031 16.542969 10.914062 16.542969 L 9.941406 16.542969 L 9.941406 8.125 C 9.941406 7.839844 9.710938 7.609375 9.425781 7.609375 Z M 7.441406 7.609375 "/>
<path style=" stroke:none;fill-rule:nonzero;fill:url(#linear3);" d="M 14.371094 15.566406 C 14.085938 15.566406 13.855469 15.335938 13.855469 15.054688 L 13.855469 6.636719 L 12.882812 6.636719 C 12.460938 6.636719 12.21875 6.164062 12.460938 5.824219 L 14.941406 2.351562 C 15.148438 2.0625 15.574219 2.0625 15.78125 2.351562 L 18.261719 5.824219 C 18.503906 6.164062 18.261719 6.636719 17.84375 6.636719 L 16.867188 6.636719 L 16.867188 15.054688 C 16.867188 15.335938 16.636719 15.566406 16.355469 15.566406 Z M 14.371094 15.566406 "/>
<path style=" stroke:none;fill-rule:nonzero;fill:rgb(0%,0%,0%);fill-opacity:0.235294;" d="M 11.394531 17.242188 C 11.378906 17.28125 11.359375 17.320312 11.332031 17.355469 L 9.03125 20.582031 C 9.101562 20.605469 9.175781 20.625 9.246094 20.648438 L 11.332031 17.726562 C 11.441406 17.574219 11.453125 17.394531 11.394531 17.242188 Z M 5.472656 17.242188 C 5.414062 17.394531 5.425781 17.574219 5.535156 17.726562 L 6.84375 19.558594 C 6.996094 19.65625 7.148438 19.75 7.308594 19.835938 L 5.535156 17.355469 C 5.507812 17.320312 5.488281 17.28125 5.472656 17.242188 Z M 5.472656 17.242188 "/>
<path style=" stroke:none;fill-rule:nonzero;fill:rgb(0%,0%,0%);fill-opacity:0.235294;" d="M 12.402344 6.308594 C 12.273438 6.632812 12.507812 7.007812 12.882812 7.007812 L 13.855469 7.007812 L 13.855469 6.636719 L 12.882812 6.636719 C 12.652344 6.636719 12.472656 6.492188 12.402344 6.308594 Z M 18.324219 6.308594 C 18.25 6.492188 18.074219 6.636719 17.84375 6.636719 L 16.867188 6.636719 L 16.867188 7.007812 L 17.84375 7.007812 C 18.21875 7.007812 18.449219 6.632812 18.324219 6.308594 Z M 13.855469 15.054688 L 13.855469 15.425781 C 13.855469 15.710938 14.085938 15.941406 14.371094 15.941406 L 16.355469 15.941406 C 16.636719 15.941406 16.867188 15.710938 16.867188 15.425781 L 16.867188 15.054688 C 16.867188 15.335938 16.636719 15.566406 16.355469 15.566406 L 14.371094 15.566406 C 14.085938 15.566406 13.855469 15.335938 13.855469 15.054688 Z M 13.855469 15.054688 "/>
<path style=" stroke:none;fill-rule:nonzero;fill:rgb(100%,100%,100%);fill-opacity:0.392157;" d="M 7.441406 7.609375 C 7.15625 7.609375 6.925781 7.839844 6.925781 8.125 L 6.925781 8.339844 C 6.925781 8.054688 7.15625 7.824219 7.441406 7.824219 L 9.425781 7.824219 C 9.710938 7.824219 9.941406 8.054688 9.941406 8.339844 L 9.941406 8.125 C 9.941406 7.839844 9.710938 7.609375 9.425781 7.609375 Z M 5.953125 16.542969 C 5.609375 16.542969 5.382812 16.859375 5.449219 17.164062 C 5.496094 16.941406 5.691406 16.753906 5.953125 16.753906 L 6.925781 16.753906 L 6.925781 16.542969 Z M 9.941406 16.542969 L 9.941406 16.753906 L 10.914062 16.753906 C 11.179688 16.753906 11.371094 16.941406 11.417969 17.164062 C 11.484375 16.859375 11.257812 16.542969 10.914062 16.542969 Z M 9.941406 16.542969 "/>
<path style=" stroke:none;fill-rule:nonzero;fill:rgb(100%,100%,100%);fill-opacity:0.392157;" d="M 15.363281 2.136719 C 15.203125 2.136719 15.046875 2.207031 14.941406 2.351562 L 12.460938 5.824219 C 12.371094 5.949219 12.347656 6.09375 12.378906 6.226562 C 12.390625 6.160156 12.417969 6.097656 12.460938 6.035156 L 14.941406 2.5625 C 15.148438 2.277344 15.574219 2.277344 15.78125 2.5625 L 18.261719 6.035156 C 18.304688 6.097656 18.332031 6.160156 18.347656 6.226562 C 18.375 6.09375 18.351562 5.949219 18.261719 5.824219 L 15.78125 2.351562 C 15.679688 2.207031 15.519531 2.136719 15.363281 2.136719 Z M 15.363281 2.136719 "/>
<path style="fill:none;stroke-width:3;stroke-linecap:round;stroke-linejoin:round;stroke:rgb(12.941177%,12.941177%,12.941177%);stroke-opacity:1;stroke-miterlimit:4;" d="M 158.734842 -52.682167 C 152.652089 -52.682167 147.735892 -47.76597 147.735892 -41.683218 L 147.735892 137.882968 L 126.987873 137.882968 C 118.072058 137.882968 112.905885 147.965339 118.072058 155.214646 L 170.983672 229.290906 C 175.399917 235.456984 184.482383 235.456984 188.815302 229.290906 L 241.726916 155.214646 C 246.976415 147.965339 241.726916 137.882968 232.811101 137.882968 L 212.063082 137.882968 L 212.063082 -41.683218 C 212.063082 -47.76597 207.146885 -52.682167 201.064133 -52.682167 Z M 158.734842 -52.682167 " transform="matrix(0.0468795,0,0,0.0468795,0,10.079087)"/>
<path style="fill:none;stroke-width:3;stroke-linecap:round;stroke-linejoin:round;stroke:rgb(12.941177%,12.941177%,12.941177%);stroke-opacity:1;stroke-miterlimit:4;" d="M 306.554059 117.051624 C 300.471306 117.051624 295.555109 112.135427 295.555109 106.136 L 295.555109 -73.430186 L 274.807091 -73.430186 C 265.80795 -73.430186 260.641777 -83.512556 265.80795 -90.761864 L 318.719564 -164.838124 C 323.135809 -171.004201 332.218275 -171.004201 336.63452 -164.838124 L 389.546134 -90.761864 C 394.712307 -83.512556 389.546134 -73.430186 380.630318 -73.430186 L 359.798974 -73.430186 L 359.798974 106.136 C 359.798974 112.135427 354.882777 117.051624 348.88335 117.051624 Z M 306.554059 117.051624 " transform="matrix(0.0468795,0,0,0.0468795,0,10.079087)"/>
</g>
</svg>
